!! 00000] TT[WS
!!!OTL: La lÅ
!!!ARE: Asia, China, Shanxi Yangquan
!! Ethnic Group: Han
!! WII, 189 (1)
!!!SCT: J0686
!!!YEM: Copyright 1995, estate of Helmut Schaffrath.
**kern
*ICvox
*Ivox
*M2/4
*k[b-]
*F:
{8cc
8ff
8ee
8dd
=1
8cc
8dd
8a
8g
=2
8r
8cc
8ff
8dd
=3
8cc
8dd
8a
8g
=4
8f
8d}
{8cc
8ff
=5
8ee
8dd
8cc
8dd
=6
8cc
8a
8g
8a
=7
8g
8d
4f
=8
8a
8d
4f}
=9
{8r
8cc
8ff
8dd
=10
8cc
8dd
8a
8g
=11
2f}
==
!!!AGN: Xiaodiao. Qingge
!!!ONB: ESAC (Essen Associative Code) Database: CHINA
!!!AMT: simple duple
!!!AIN: vox
!!!EED: Helmut Schaffrath
!!!EEV: 1.0
*-
